assets/sonr-icons/coins-hand.svg

<svg xmlns="http://www.w3.org/2000/svg" width="24" height="24" fill="none" viewBox="0 0 24 24"><path fill="#000" fill-rule="evenodd" d="M11.5199 1.43994C12.7356 1.43994 13.8331 1.94231 14.6173 2.74834 15.1397 2.52411 15.7153 2.39994 16.3199 2.39994 18.7061 2.39994 20.6399 4.33375 20.6399 6.71994 20.6399 9.10613 18.7061 11.0399 16.3199 11.0399 15.1049 11.0399 14.0072 10.5385 13.2223 9.73134 12.6994 9.95578 12.1236 10.0799 11.5199 10.0799 9.13375 10.0799 7.19995 8.14614 7.19995 5.75994 7.19995 3.37375 9.13375 1.43994 11.5199 1.43994ZM9.11995 5.75994C9.11995 4.43414 10.1941 3.35994 11.5199 3.35994 12.0976 3.35994 12.628 3.56366 13.043 3.90466 12.3928 4.66073 11.9999 5.64438 11.9999 6.71994 11.9999 7.18741 12.0742 7.63752 12.2115 8.05913 11.9928 8.12474 11.7608 8.15994 11.5199 8.15994 10.1941 8.15994 9.11995 7.08575 9.11995 5.75994ZM14.9278 4.76465C14.9249 4.7667 14.922 4.76874 14.9191 4.77077 14.3139 5.20642 13.9199 5.91704 13.9199 6.71994 13.9199 8.04575 14.9941 9.11994 16.3199 9.11994 17.6458 9.11994 18.7199 8.04575 18.7199 6.71994 18.7199 5.39413 17.6458 4.31994 16.3199 4.31994 15.8061 4.31994 15.33 4.4813 14.9397 4.75613 14.9358 4.75899 14.9318 4.76183 14.9278 4.76465ZM5.41425 12.0153C5.21424 11.9989 4.97803 11.9989 4.73565 11.9989H3.90622C3.66387 11.9989 3.42787 11.9989 3.22796 12.0153 3.00817 12.0333 2.75002 12.0758 2.48996 12.2081 2.12527 12.3935 1.83446 12.6883 1.65107 13.0452L1.6505 13.0463C1.51679 13.3074 1.47428 13.567 1.45628 13.7866 1.43989 13.9866 1.43991 14.2229 1.43994 14.4652V20.0947C1.43991 20.337 1.43989 20.573 1.45629 20.7729 1.47432 20.9927 1.51681 21.2509 1.64915 21.5109 1.83452 21.8756 2.12929 22.1664 2.48621 22.3498L2.48731 22.3504C2.74837 22.4841 3.00803 22.5266 3.22765 22.5446 3.42762 22.561 3.66379 22.561 3.90614 22.5609H4.73571C4.97803 22.561 5.21404 22.561 5.41393 22.5446 5.63373 22.5266 5.89187 22.4841 6.15194 22.3517 6.51662 22.1664 6.80744 21.8716 6.99083 21.5147L6.99139 21.5136C7.1251 21.2525 7.16761 20.9929 7.18561 20.7732 7.18694 20.757 7.18816 20.7406 7.18928 20.7239H8.74595C8.99625 20.7239 9.24322 20.7537 9.48457 20.8131L9.48742 20.8138 12.1348 21.4567C12.8436 21.6295 13.5827 21.6466 14.2994 21.5073L17.228 20.9371C18.1807 20.751 19.0623 20.2944 19.7554 19.62L21.8264 17.605C22.8053 16.6536 22.8039 15.0979 21.826 14.1465 20.9558 13.3008 19.591 13.2093 18.6132 13.9224L17.19 14.9606C17.1367 13.8784 16.3619 12.9745 15.3138 12.7191L13.0238 12.1621 13.0221 12.1617C12.5765 12.0542 12.1199 11.9989 11.6589 11.9989 11.0107 11.9989 10.2172 12.2485 9.6863 12.4387 9.39903 12.5417 9.14433 12.6441 8.96159 12.7206 8.86989 12.759 8.79548 12.7913 8.74318 12.8143 8.73663 12.8172 8.73044 12.8199 8.72459 12.8225 8.70704 12.8302 8.69267 12.8367 8.68171 12.8416L8.67289 12.8456 7.14357 13.485C7.11441 13.3448 7.06817 13.1972 6.99274 13.049 6.80737 12.6843 6.5126 12.3935 6.15568 12.2101L6.15459 12.2095C5.89352 12.0758 5.63386 12.0333 5.41425 12.0153ZM5.27995 19.7639C5.27995 19.743 5.28062 19.7221 5.28195 19.7015V14.9521C5.28027 14.9195 5.28029 14.8869 5.28195 14.8545V14.4959C5.28195 14.211 5.28119 14.0556 5.27204 13.9439L5.27082 13.93 5.2574 13.9289C5.14559 13.9197 4.98985 13.9189 4.70495 13.9189H3.93695C3.65203 13.9189 3.49658 13.9197 3.38493 13.9289L3.37104 13.9301 3.36986 13.9435C3.3607 14.0553 3.35995 14.211 3.35995 14.4959V20.0639C3.35995 20.3489 3.3607 20.5043 3.36986 20.616L3.37108 20.6298 3.3845 20.631C3.4963 20.6402 3.65204 20.6409 3.93695 20.6409H4.70495C4.98986 20.6409 5.14531 20.6402 5.25696 20.631L5.27086 20.6298 5.27203 20.6164C5.28119 20.5046 5.28195 20.3488 5.28195 20.0639V19.8264C5.28062 19.8058 5.27995 19.7849 5.27995 19.7639ZM9.94216 18.9485C9.54988 18.852 9.14924 18.8039 8.74595 18.8039H7.20195V15.5417L9.42627 14.6116C9.42869 14.6106 9.43111 14.6096 9.43354 14.6086 9.44081 14.6055 9.44809 14.6022 9.45524 14.599L9.45715 14.5981 9.4683 14.5931 9.51645 14.5717C9.55948 14.5528 9.62331 14.5251 9.7033 14.4916 9.86394 14.4243 10.0864 14.3349 10.3341 14.2462 10.8732 14.0529 11.3812 13.9189 11.6589 13.9189 11.9658 13.9189 12.2716 13.9558 12.5718 14.0282L14.8601 14.5847C15.1194 14.6481 15.2729 14.8646 15.2729 15.0799V15.3749C15.2729 15.6338 15.05 15.8879 14.7189 15.8879 14.1888 15.8879 13.7589 16.3177 13.7589 16.8479 13.7589 17.3781 14.1888 17.8079 14.7189 17.8079H15.5659C16.1997 17.8079 16.8189 17.6086 17.3316 17.2339L19.7447 15.4735C19.9707 15.3088 20.2917 15.3331 20.4875 15.523 20.6914 15.7214 20.6899 16.0322 20.4875 16.2289L18.4165 18.2439C17.9956 18.6535 17.4532 18.9369 16.8599 19.0527L13.9327 19.6226C13.4874 19.7092 13.0276 19.6982 12.5885 19.5911L9.94332 18.9487 9.94216 18.9485ZM3.35783 13.9208 3.35994 13.9197 2.50495 13.4839 3.35783 13.9208Z" clip-rule="evenodd"/></svg>

<svg xmlns="http://www.w3.org/2000/svg" width="24" height="24" fill="none"><path fill="currentColor" fill-rule="evenodd" d="M11.52 1.44c1.216 0 2.313.502 3.097 1.308a4.32 4.32 0 1 1-1.395 6.983A4.32 4.32 0 1 1 11.52 1.44m-2.4 4.32a2.4 2.4 0 0 1 3.923-1.855A4.3 4.3 0 0 0 12 6.72c0 .467.074.918.211 1.34a2.402 2.402 0 0 1-3.091-2.3m5.808-.995-.009.006a2.4 2.4 0 1 0 .009-.006m-9.514 7.25C5.214 12 4.978 12 4.736 12h-.83c-.242 0-.478 0-.678.016-.22.018-.478.06-.738.193-.365.185-.656.48-.839.837v.001c-.134.261-.177.521-.195.74-.016.2-.016.437-.016.68v5.629c0 .242 0 .478.016.678.018.22.06.478.193.738.186.365.48.655.837.839h.001c.261.134.521.177.74.195.2.016.437.016.68.016h.829c.242 0 .478 0 .678-.016.22-.018.478-.06.738-.193.365-.186.655-.48.839-.837v-.001a1.9 1.9 0 0 0 .198-.79h1.557q.375 0 .739.09h.002l2.648.643c.709.172 1.448.19 2.164.05l2.929-.57a5 5 0 0 0 2.527-1.317l2.071-2.015a2.404 2.404 0 0 0 0-3.459 2.506 2.506 0 0 0-3.213-.224l-1.423 1.039c-.053-1.083-.828-1.986-1.876-2.242l-2.29-.557h-.002a5.8 5.8 0 0 0-1.363-.163c-.648 0-1.442.25-1.973.44a15 15 0 0 0-.943.375l-.018.008-.043.02-.01.004-1.528.639a1.7 1.7 0 0 0-.151-.436 1.92 1.92 0 0 0-.837-.839h-.001a1.9 1.9 0 0 0-.74-.195m-.134 7.749q0-.032.002-.062v-4.75a1 1 0 0 1 0-.098v-.358c0-.285 0-.44-.01-.552l-.001-.014-.014-.001a8 8 0 0 0-.552-.01h-.768c-.285 0-.44 0-.552.01l-.014.001-.001.014c-.01.111-.01.267-.01.552v5.568c0 .285 0 .44.01.552l.001.014.014.001c.111.01.267.01.552.01h.768c.285 0 .44 0 .552-.01l.014-.001.001-.014c.01-.111.01-.267.01-.552v-.238zm4.662-.816a5 5 0 0 0-1.196-.144H7.202v-3.262l2.224-.93.008-.003.021-.01h.002l.011-.006.048-.021a12 12 0 0 1 .818-.326c.54-.193 1.047-.327 1.325-.327q.462 0 .913.11l2.288.556c.26.063.413.28.413.495v.295c0 .259-.223.513-.554.513a.96.96 0 0 0 0 1.92h.847c.634 0 1.253-.2 1.766-.574l2.413-1.76a.586.586 0 0 1 .742.049.485.485 0 0 1 0 .706l-2.07 2.015c-.421.41-.964.693-1.557.809l-2.927.57a3.15 3.15 0 0 1-1.344-.032l-2.646-.642m-6.584-5.027.002-.001-.855-.436z" clip-rule="evenodd"/></svg>
